lib/icons/github.svg

<svg width="21" height="20" viewBox="0 0 21 20" fill="none" xmlns="http://www.w3.org/2000/svg">
<path fill-rule="evenodd" clip-rule="evenodd" d="M10 0C4.47853 0 0 4.47853 0 10C0 14.4172 2.88344 18.1595 6.80982 19.5092C7.30061 19.5706 7.48466 19.2638 7.48466 19.0184C7.48466 18.773 7.48466 18.1595 7.48466 17.3006C4.72393 17.9141 4.11043 15.9509 4.11043 15.9509C3.68098 14.7853 3.00614 14.4785 3.00614 14.4785C2.08589 13.865 3.06748 13.865 3.06748 13.865C4.04908 13.9264 4.60123 14.908 4.60123 14.908C5.52147 16.4417 6.93252 16.0123 7.48466 15.7669C7.54601 15.092 7.85276 14.6626 8.09816 14.4172C5.88957 14.1718 3.55828 13.3129 3.55828 9.44785C3.55828 8.34356 3.92638 7.48466 4.60123 6.74847C4.53988 6.56442 4.17178 5.52147 4.72393 4.17178C4.72393 4.17178 5.58282 3.92638 7.48466 5.21472C8.28221 4.96933 9.1411 4.90798 10 4.90798C10.8589 4.90798 11.7178 5.03067 12.5153 5.21472C14.4172 3.92638 15.2761 4.17178 15.2761 4.17178C15.8282 5.52147 15.4601 6.56442 15.3988 6.80982C16.0123 7.48466 16.4417 8.40491 16.4417 9.5092C16.4417 13.3742 14.1104 14.1718 11.9018 14.4172C12.2699 14.7239 12.5767 15.3374 12.5767 16.2577C12.5767 17.6074 12.5767 18.6503 12.5767 19.0184C12.5767 19.2638 12.7607 19.5706 13.2515 19.5092C17.2393 18.1595 20.0614 14.4172 20.0614 10C20 4.47853 15.5215 0 10 0Z" fill="#2F354D"/>
</svg>

<svg width="21" height="20" fill="none" xmlns="http://www.w3.org/2000/svg"><path fill-rule="evenodd" clip-rule="evenodd" d="M10 0C4.479 0 0 4.479 0 10c0 4.417 2.883 8.16 6.81 9.51.49.06.675-.246.675-.492v-1.717c-2.761.613-3.375-1.35-3.375-1.35-.429-1.166-1.104-1.473-1.104-1.473-.92-.613.061-.613.061-.613.982.061 1.534 1.043 1.534 1.043.92 1.534 2.332 1.104 2.884.859a2.136 2.136 0 0 1 .613-1.35c-2.208-.245-4.54-1.104-4.54-4.97 0-1.103.368-1.962 1.043-2.699-.061-.184-.43-1.227.123-2.576 0 0 .859-.246 2.76 1.043.798-.246 1.657-.307 2.516-.307s1.718.123 2.515.307c1.902-1.289 2.761-1.043 2.761-1.043.552 1.35.184 2.392.123 2.638a3.968 3.968 0 0 1 1.043 2.7c0 3.864-2.332 4.662-4.54 4.907.368.307.675.92.675 1.84v2.761c0 .246.184.553.675.491A10.01 10.01 0 0 0 20.061 10C20 4.479 15.521 0 10 0Z" fill="#2F354D"/></svg>
